; generated by PrusaSlicer 2.5.2+win64 on 2023-06-05 at 22:58:52 UTC


;
;

;
;
; 

; external perimeters extrusion width = 0.45mm
; perimeters extrusion width = 0.45mm
; infill extrusion width = 0.45mm
; solid infill extrusion width = 0.45mm
; top infill extrusion width = 0.40mm
; support material extrusion width = 0.35mm
; first layer extrusion width = 0.42mm

; external perimeters extrusion width = 0.45mm
; perimeters extrusion width = 0.45mm
; infill extrusion width = 0.45mm
; solid infill extrusion width = 0.45mm
; top infill extrusion width = 0.40mm
; support material extrusion width = 0.35mm
; first layer extrusion width = 0.42mm

M73 P0 R74
M201 X2500 Y2500 Z400 E5000 ; sets maximum accelerations, mm/sec^2
M203 X180 Y180 Z12 E80 ; sets maximum feedrates, mm / sec
M204 P2000 R1250 T2500 ; sets acceleration (P, T) and retract acceleration (R), mm/sec^2
M205 X8.00 Y8.00 Z2.00 E10.00 ; sets the jerk limits, mm/sec
M205 S0 T0 ; sets the minimum extruding and travel feed rate, mm/sec
M107
;TYPE:Custom
M862.3 P "MINI" ; printer model check
G90 ; use absolute coordinates
M83 ; extruder relative mode
M104 S170 ; set extruder temp for bed leveling
M140 S60 ; set bed temp
M109 R170 ; wait for bed leveling temp
M190 S60 ; wait for bed temp
M204 T1250 ; set travel acceleration
G28 ; home all without mesh bed level
G29 ; mesh bed leveling 
M204 T2500 ; restore travel acceleration
M104 S215 ; set extruder temp
G92 E0
G1 Y-2 X179 F2400
G1 Z3 F720
M109 S215 ; wait for extruder temp

; intro line
G1 X170 F1000
G1 Z0.2 F720
G1 X110 E8 F900
G1 X40 E10 F700
G92 E0

M221 S95 ; set flow
G21 ; set units to millimeters
G90 ; use absolute coordinates
M83 ; use relative distances for extrusion
M900 K0.2 ; Filament gcode LA 1.5
; ; Filament gcode LA 1.0
M107
;LAYER_CHANGE
;Z:0.2
;HEIGHT:0.2
;BEFORE_LAYER_CHANGE
G92 E0.0
;0.2


G1 E-3.2 F4200
G1 Z.2 F720
;AFTER_LAYER_CHANGE
;0.2
G1 Z.4
G1 X21.762 Y21.27 F9000
G1 Z.2 F720
G1 E3.2 F2400
M204 P600
;TYPE:Skirt/Brim
;WIDTH:0.42
G1 F1200
G1 X38.785 Y3.853 E14.61635
G1 X39.979 Y3.192 E.81885
G1 X40.874 Y3.169 E.53705
G1 X53.682 Y5.29 E7.79131
G1 X55.059 Y6.043 E.94199
G1 X160.856 Y123.386 E94.81933
G1 X161.719 Y124.682 E.93417
G1 X162.362 Y126.19 E.98398
G1 X162.706 Y127.74 E.95287
G1 X162.778 Y128.774 E.62218
G1 X162.74 Y129.667 E.53636
G1 X162.421 Y131.322 E1.01166
G1 X161.71 Y133.033 E1.11215
G1 X160.783 Y134.405 E.99355
G1 X159.552 Y135.636 E1.04448
G1 X157.736 Y136.218 E1.14475
G1 X80.785 Y128.272 E46.42693
G1 X79.665 Y127.855 E.71712
M73 P0 R73
G1 X7.253 Y77.135 E53.05742
G1 X6.408 Y76.064 E.81885
G1 X6.245 Y75.039 E.62288
G1 X6.443 Y71.87 E1.90545
G1 X9.447 Y34.654 E22.40735
G1 X10.117 Y33.184 E.96952
G1 X21.72 Y21.313 E9.96233
M204 P1000
; printing object Gear 06-05-23.STL id:0 copy 0
G1 E-2.24 F4200
;WIPE_START
G1 F7200
G1 X22.87 Y20.136 E-.912
;WIPE_END
G1 E-.048 F4200
G1 Z.4 F720
G1 X159.569 Y128.291 F9000
G1 Z.2 F720
G1 E3.2 F2400
M204 P600
;TYPE:Perimeter
;WIDTH:0.419999
G1 F1200
G1 X159.283 Y127.997 E.24586
G1 X159.03 Y127.817 E.1861
G1 X158.556 Y127.582 E.3177
G1 X158.232 Y127.505 E.19966
G1 X157.699 Y127.482 E.32059
G1 X157.331 Y127.568 E.2267
G1 X157.505 Y127.189 E.25049
G1 X157.637 Y126.82 E.23503
G1 X157.573 Y126.51 E.18953
G1 X157.381 Y126.301 E.17019
G1 X155.9 Y125.337 E1.06058
G1 X154.23 Y124.385 E1.15364
G1 X152.56 Y123.531 E1.12595
G1 X151.716 Y123.132 E.5598
G1 X150.411 Y122.552 E.85758
G1 X149.004 Y121.979 E.91116
G1 X148.004 Y121.687 E.6252
G1 X147.479 Y121.598 E.31963
G1 X146.955 Y121.516 E.31867
G1 X145.974 Y121.478 E.58879
G1 X144.986 Y121.552 E.59481
G1 X143.905 Y121.743 E.65916
G1 X142.863 Y122.008 E.64505
G1 X142.053 Y122.257 E.50845
G1 X142.21 Y121.787 E.29753
G1 X142.17 Y121.228 E.33607
G1 X142.097 Y121.02 E.13219
G1 X141.916 Y120.714 E.21351
G1 X141.505 Y120.338 E.33449
G1 X140.964 Y120.12 E.34981
G1 X140.518 Y120.1 E.2677
G1 X139.983 Y120.249 E.33346
G1 X139.605 Y120.498 E.27163
G1 X139.271 Y120.98 E.35196
G1 X139.173 Y121.377 E.24568
G1 X138.813 Y120.928 E.34487
G1 X138.352 Y120.422 E.41121
G1 X137.454 Y119.515 E.76562
G1 X136.736 Y118.916 E.56131
G1 X135.982 Y118.417 E.54269
G1 X135.182 Y118.022 E.53529
G1 X134.412 Y117.756 E.48933
G1 X131.278 Y117.14 E1.91674
G1 X127.33 Y116.468 E2.40325
G1 X124.692 Y116.073 E1.60096
G1 X122.556 Y115.785 E1.2936
G1 X119.23 Y115.379 E2.01083
G1 X117.91 Y113.891 E1.19309
G1 X117.575 Y113.554 E.28557
G1 X118.045 Y113.633 E.28634
G1 X122.765 Y114.195 E2.85222
G1 X125.513 Y114.573 E1.66495
G1 X128.177 Y114.982 E1.61755
G1 X130.662 Y115.403 E1.51249
G1 X132.292 Y115.701 E.9945
G1 X134.55 Y116.148 E1.38139
G1 X136.731 Y116.62 E1.33936
G1 X138.752 Y117.095 E1.24593
G1 X140.786 Y117.614 E1.25984
G1 X142.747 Y118.159 E1.22103
G1 X144.634 Y118.728 E1.18289
G1 X146.376 Y119.298 E1.09996
G1 X147.938 Y119.85 E.99446
G1 X149.422 Y120.414 E.95294
G1 X150.826 Y120.988 E.91025
G1 X152.097 Y121.546 E.83272
G1 X153.36 Y122.14 E.83771
G1 X154.552 Y122.743 E.80212
G1 X155.915 Y123.489 E.93181
G1 X156.958 Y124.108 E.72811
G1 X157.445 Y124.444 E.35542
G1 X157.868 Y124.805 E.33332
G1 X158.381 Y125.359 E.45346
G1 X158.704 Y125.804 E.32975
G1 X159.185 Y126.712 E.61668
G1 X159.452 Y127.524 E.51284
G1 X159.56 Y128.231 E.42953
M204 P1000
G1 E-2.24 F4200
;WIPE_START
G1 F7200
G1 X159.283 Y127.997 E-.20092
G1 X159.03 Y127.817 E-.17184
G1 X158.556 Y127.582 E-.29337
G1 X158.232 Y127.505 E-.18437
G1 X158.121 Y127.5 E-.0615
;WIPE_END
G1 E-.048 F4200
G1 Z.4 F720
G1 X156.116 Y129.281 F9000
M73 P1 R73
G1 Z.2 F720
G1 E3.2 F2400
M204 P600
;TYPE:External perimeter
;WIDTH:0.38292
G1 F1200
G1 X156.359 Y128.733 E.32419
M204 P1000
G1 E-2.24 F4200
;WIPE_START
G1 F7200
G1 X156.116 Y129.281 E-.332
;WIPE_END
G1 E-.628 F4200
G1 Z.4 F720
G1 X158.578 Y132.053 F9000
G1 Z.2 F720
G1 E3.2 F2400
M204 P600
;TYPE:Perimeter
;WIDTH:0.456077
G1 F1200
G1 X158.037 Y132.704 E.55698
G1 X157.573 Y132.181 E.45963
G1 X158.174 Y132.165 E.3952
G1 X158.52 Y132.069 E.23668
M204 P1000
G1 E-2.24 F4200
;WIPE_START
G1 F7200
G1 X158.037 Y132.704 E-.44246
G1 X157.573 Y132.181 E-.38736
G1 X157.721 Y132.177 E-.08219
;WIPE_END
G1 E-.048 F4200
G1 Z.4 F720
G1 X159.515 Y130.364 F9000
G1 Z.2 F720
G1 E3.2 F2400
M204 P600
;TYPE:External perimeter
;WIDTH:0.424247
G1 F1200
G1 X159.612 Y130.02 E.21682
G1 X159.648 Y129.487 E.32405
;WIDTH:0.444314
G1 X159.605 Y129.137 E.22496
G1 X159.464 Y128.81 E.22737
;WIDTH:0.419999
G1 X159.244 Y128.487 E.23462
G1 X158.821 Y128.131 E.33162
G1 X158.408 Y127.929 E.27604
G1 X158.157 Y127.874 E.15408
G1 X157.708 Y127.859 E.26971
G1 X157.315 Y127.972 E.24567
G1 X156.795 Y128.3 E.36898
G1 X156.359 Y128.733 E.36861
;WIDTH:0.388359
G1 X156.382 Y128.68 E.0319
;WIDTH:0.419999
G1 X156.694 Y127.882 E.51429
G1 X156.974 Y127.441 E.31356
G1 X157.244 Y126.854 E.38777
G1 X157.252 Y126.717 E.08227
G1 X157.176 Y126.617 E.07551
G1 X155.716 Y125.666 E1.0454
G1 X154.036 Y124.708 E1.16077
G1 X152.399 Y123.872 E1.10331
G1 X151.563 Y123.477 E.55454
G1 X150.252 Y122.894 E.86119
G1 X148.862 Y122.329 E.90033
G1 X147.878 Y122.045 E.6149
G1 X146.939 Y121.893 E.57096
G1 X146.001 Y121.854 E.56301
G1 X145.051 Y121.923 E.57161
G1 X143.995 Y122.109 E.64353
G1 X142.601 Y122.464 E.86379
G1 X142.081 Y122.646 E.33016
;WIDTH:0.437895
G1 X141.39 Y122.879 E.45837
G1 X141.235 Y122.902 E.09894
;WIDTH:0.412417
G1 X141.079 Y122.925 E.09256
;WIDTH:0.435236
G1 X140.999 Y122.898 E.05311
;WIDTH:0.483533
G1 X140.918 Y122.87 E.05964
;WIDTH:0.53183
G1 X140.838 Y122.842 E.06618
;WIDTH:0.580127
G1 X140.757 Y122.815 E.07272
;WIDTH:0.628424
G1 X140.677 Y122.787 E.07926
G1 X140.753 Y122.762 E.07407
;WIDTH:0.582663
G1 X140.828 Y122.737 E.06828
;WIDTH:0.536902
G1 X140.885 Y122.691 E.05803
;WIDTH:0.486915
G1 X140.943 Y122.644 E.05216
;WIDTH:0.436927
G1 X141 Y122.598 E.04629
;WIDTH:0.417684
G1 X141.22 Y122.512 E.14096
;WIDTH:0.448429
G1 X141.441 Y122.427 E.15253
G1 X141.713 Y122.112 E.26904
;WIDTH:0.419999
G1 X141.842 Y121.707 E.25492
G1 X141.796 Y121.281 E.25671
G1 X141.591 Y120.906 E.25688
G1 X141.269 Y120.632 E.25404
G1 X140.873 Y120.486 E.25312
G1 X140.646 Y120.466 E.13689
G1 X140.247 Y120.542 E.24385
G1 X139.884 Y120.758 E.25317
G1 X139.632 Y121.102 E.25626
G1 X139.556 Y121.316 E.13635
;WIDTH:0.440133
G1 X139.549 Y121.715 E.25217
G1 X139.703 Y122.049 E.23216
;WIDTH:0.480484
G1 X139.779 Y122.182 E.10641
;WIDTH:0.526977
G1 X139.854 Y122.314 E.11772
;WIDTH:0.57347
G1 X139.93 Y122.447 E.12903
;WIDTH:0.619962
G1 X140.006 Y122.58 E.14033
G1 X139.909 Y122.546 E.09393
;WIDTH:0.574489
G1 X139.812 Y122.513 E.08653
;WIDTH:0.529015
G1 X139.716 Y122.48 E.07913
;WIDTH:0.483541
G1 X139.619 Y122.446 E.07172
;WIDTH:0.438067
G1 X139.412 Y122.295 E.16132
;WIDTH:0.458629
G1 X138.882 Y121.618 E.56896
;WIDTH:0.419999
G1 X138.535 Y121.182 E.33426
G1 X137.682 Y120.28 E.7454
G1 X137.212 Y119.804 E.40124
G1 X136.527 Y119.23 E.53649
G1 X135.813 Y118.755 E.51449
G1 X135.057 Y118.377 E.50732
G1 X134.339 Y118.126 E.45631
G1 X131.214 Y117.512 E1.91108
G1 X127.273 Y116.84 E2.39944
G1 X124.643 Y116.447 E1.5962
G1 X121.926 Y116.081 E1.64523
G1 X119.043 Y115.736 E1.7425
G1 X117.59 Y114.098 E1.31414
G1 X117.23 Y113.745 E.30203
G1 X116.567 Y113.21 E.51189
G1 X116.255 Y112.877 E.27376
G1 X116.703 Y112.916 E.27017
G1 X117.591 Y113.173 E.55462
G1 X118.09 Y113.259 E.30401
G1 X122.813 Y113.821 E2.8543
G1 X125.567 Y114.2 E1.66874
G1 X128.237 Y114.609 E1.62106
G1 X130.728 Y115.031 E1.51579
G1 X132.363 Y115.331 E.99763
G1 X134.626 Y115.779 E1.38498
G1 X136.814 Y116.252 E1.34338
G1 X138.842 Y116.729 E1.25013
G1 X140.883 Y117.25 E1.26435
G1 X142.852 Y117.797 E1.2259
G1 X144.747 Y118.369 E1.18804
G1 X146.497 Y118.941 E1.1052
G1 X148.068 Y119.496 E.99976
G1 X149.561 Y120.063 E.95848
G1 X150.973 Y120.641 E.91591
G1 X152.253 Y121.202 E.83856
G1 X153.525 Y121.801 E.84395
G1 X154.728 Y122.41 E.80901
G1 X156.101 Y123.161 E.93938
G1 X157.162 Y123.79 E.73987
G1 X157.675 Y124.145 E.37475
G1 X158.129 Y124.532 E.35816
G1 X158.673 Y125.12 E.4803
G1 X159.025 Y125.604 E.35922
G1 X159.533 Y126.564 E.65184
G1 X159.82 Y127.436 E.55084
G1 X159.994 Y128.693 E.76146
;WIDTH:0.425435
G1 X160.03 Y129.467 E.47196
G1 X160.028 Y129.512 E.02766
;WIDTH:0.424095
G1 X159.959 Y130.217 E.4298
;WIDTH:0.420544
G1 X159.75 Y130.882 E.41846
;WIDTH:0.440603
G1 X159.504 Y131.336 E.32712
G1 X159.203 Y131.815 E.35818
;WIDTH:0.422547
G1 X158.901 Y132.282 E.33584
;WIDTH:0.419999
G1 X158.494 Y132.772 E.3821
G1 X158.011 Y133.27 E.41647
G1 X157.481 Y132.673 E.47918
G1 X157.11 Y132.289 E.32026
;WIDTH:0.426405
G1 X156.047 Y131.241 E.91117
;WIDTH:0.469042
G1 X155.705 Y130.821 E.36756
G1 X155.768 Y130.522 E.20724
G1 X155.96 Y129.989 E.38446
G1 X156.136 Y130.689 E.48969
G1 X156.258 Y130.87 E.14781
;WIDTH:0.444007
G1 X156.379 Y131.051 E.13912
;WIDTH:0.426405
G1 X156.802 Y131.46 E.3592
G1 X157.096 Y131.644 E.21138
;WIDTH:0.42181
G1 X157.471 Y131.77 E.23857
;WIDTH:0.419999
G1 X157.972 Y131.788 E.30114
G1 X158.468 Y131.673 E.30526
G1 X158.783 Y131.506 E.21421
;WIDTH:0.440076
G1 X159.058 Y131.284 E.22336
;WIDTH:0.440603
G1 X159.427 Y130.678 E.44853
;WIDTH:0.424247
G1 X159.499 Y130.421 E.16207
M204 P1000
G1 E-2.24 F4200
;WIPE_START
G1 F7200
G1 X159.612 Y130.02 E-.23123
G1 X159.648 Y129.487 E-.29589
G1 X159.605 Y129.137 E-.19514
G1 X159.469 Y128.823 E-.18973
;WIPE_END
G1 E-.048 F4200
G1 Z.4 F720
G1 X140.677 Y122.787 F9000
G1 Z.2 F720
G1 E3.2 F2400
M204 P600
;WIDTH:0.628424
G1 F1200
G1 X140.314 Y122.723 E.34375
;WIDTH:0.619962
G1 X140.006 Y122.58 E.31191
M204 P1000
G1 E-2.24 F4200
;WIPE_START
G1 F7200
G1 X140.314 Y122.723 E-.18821
G1 X140.677 Y122.787 E-.20442
;WIPE_END
G1 E-.56736 F4200
G1 Z.4 F720
G1 X156.773 Y124.196 F9000
G1 Z.2 F720
G1 E3.2 F2400
M204 P600
;TYPE:Solid infill
;WIDTH:0.426899
G1 F1200
G1 X157.689 Y125.111 E.79133
G1 X158.118 Y125.575 E.38622
G1 X158.415 Y125.984 E.30877
G1 X158.861 Y126.826 E.58232
G1 X155.924 Y123.889 E2.53843
G1 X154.706 Y123.214 E.85053
G1 X158.824 Y127.332 E3.55839
G1 X158.557 Y127.225 E.17556
G1 X158.091 Y127.142 E.28916
G1 X157.797 Y126.848 E.25436
M204 P1000
G1 E-2.24 F4200
;WIPE_START
G1 F7200
G1 X158.091 Y127.142 E-.23066
G1 X158.557 Y127.225 E-.26221
G1 X158.824 Y127.332 E-.1592
G1 X158.492 Y127 E-.25993
;WIPE_END
G1 E-.048 F4200
G1 Z.4 F720
G1 X156.425 Y125.476 F9000
G1 Z.2 F720
G1 E3.2 F2400
M204 P600
G1 F1200
G1 X153.581 Y122.632 E2.45803
G1 X152.531 Y122.125 E.71295
G1 X154.625 Y124.219 E1.81033
G1 X153.486 Y123.623 E.78607
G1 X151.531 Y121.668 E1.68966
G1 X150.57 Y121.25 E.64013
G1 X152.4 Y123.08 E1.58134
G1 X151.395 Y122.618 E.6759
G1 X149.651 Y120.874 E1.50693
G1 X148.759 Y120.525 E.58572
G1 X150.425 Y122.191 E1.44019
G1 X149.509 Y121.819 E.60425
G1 X147.883 Y120.192 E1.40578
G1 X147.041 Y119.893 E.54596
G1 X148.683 Y121.535 E1.41882
G1 X147.933 Y121.328 E.47534
G1 X146.204 Y119.599 E1.49403
G1 X145.397 Y119.335 E.5191
G1 X147.288 Y121.226 E1.63432
G1 X146.978 Y121.177 E.19178
G1 X146.683 Y121.165 E.18006
G1 X144.589 Y119.071 E1.80969
G1 X144.532 Y119.052 E.03713
G1 X143.81 Y118.834 E.46094
G1 X146.117 Y121.141 E1.99381
G1 X145.6 Y121.167 E.31635
G1 X143.032 Y118.599 E2.21913
G1 X142.267 Y118.378 E.48637
G1 X145.094 Y121.204 E2.44266
G1 X144.618 Y121.272 E.29357
G1 X141.516 Y118.169 E2.68134
G1 X140.764 Y117.96 E.47682
G1 X144.156 Y121.353 E2.93199
G1 X143.707 Y121.446 E.28073
G1 X140.033 Y117.772 E3.17517
G1 X139.303 Y117.586 E.45995
G1 X143.275 Y121.558 E3.43232
G1 X142.843 Y121.669 E.27245
G1 X142.531 Y121.357 E.26989
G1 X142.504 Y121.165 E.11801
G1 X142.396 Y120.86 E.19759
G1 X142.201 Y120.53 E.23481
G1 X142.006 Y120.305 E.18196
G1 X141.707 Y120.065 E.23439
G1 X141.452 Y119.925 E.17768
G1 X141.051 Y119.791 E.25813
G1 X140.949 Y119.774 E.06345
G1 X138.577 Y117.402 E2.04984
G1 X137.867 Y117.235 E.44573
G1 X140.411 Y119.779 E2.19861
G1 X140.088 Y119.843 E.2013
G1 X139.977 Y119.888 E.0732
G1 X137.157 Y117.069 E2.43701
G1 X136.452 Y116.907 E.442
G1 X139.625 Y120.079 E2.7421
G1 X139.378 Y120.244 E.18118
G1 X139.317 Y120.314 E.05717
G1 X135.759 Y116.757 E3.07456
G1 X135.066 Y116.607 E.43315
G1 X139.088 Y120.628 E3.4754
G1 X139.049 Y120.686 E.04214
G1 X138.596 Y120.186 E.41228
G1 X137.73 Y119.308 E.75356
G1 X136.931 Y118.638 E.63701
G1 X136.142 Y118.118 E.57775
G1 X135.926 Y118.01 E.14735
G1 X134.376 Y116.46 E1.33977
G1 X133.699 Y116.326 E.4218
G1 X134.959 Y117.586 E1.08884
G1 X134.595 Y117.454 E.23639
G1 X134.207 Y117.377 E.24182
G1 X133.022 Y116.192 E1.02422
G1 X132.345 Y116.058 E.4218
G1 X133.529 Y117.242 E1.02359
G1 X132.851 Y117.107 E.42233
G1 X131.678 Y115.934 E1.0142
G1 X131.013 Y115.812 E.41306
G1 X132.174 Y116.972 E1.003
G1 X131.496 Y116.838 E.42233
G1 X130.352 Y115.694 E.98815
G1 X129.699 Y115.584 E.40526
G1 X130.836 Y116.721 E.98305
G1 X130.181 Y116.609 E.40581
G1 X129.045 Y115.473 E.98238
G1 X128.391 Y115.362 E.40526
G1 X129.527 Y116.498 E.98171
G1 X128.872 Y116.386 E.40581
G1 X127.744 Y115.259 E.97462
G1 X127.103 Y115.16 E.39645
G1 X128.218 Y116.275 E.96308
G1 X127.563 Y116.163 E.40581
G1 X126.462 Y115.062 E.95154
G1 X125.821 Y114.964 E.39645
G1 X126.92 Y116.063 E.95003
G1 X126.281 Y115.968 E.3946
G1 X125.185 Y114.871 E.94792
G1 X124.555 Y114.784 E.38849
G1 X125.643 Y115.872 E.94028
G1 X125.004 Y115.776 E.3946
G1 X123.925 Y114.697 E.93265
G1 X123.295 Y114.611 E.38849
G1 X124.372 Y115.687 E.9306
G1 X123.745 Y115.603 E.3869
G1 X122.667 Y114.525 E.93157
G1 X122.05 Y114.452 E.37933
G1 X123.117 Y115.519 E.922
G1 X122.49 Y115.434 E.3869
G1 X121.434 Y114.378 E.91242
G1 X120.818 Y114.305 E.37933
G1 X121.865 Y115.352 E.90514
G1 X121.248 Y115.279 E.3797
G1 X120.201 Y114.232 E.90467
G1 X119.585 Y114.158 E.37933
G1 X120.631 Y115.205 E.9042
G1 X120.014 Y115.131 E.3797
G1 X118.775 Y113.891 E1.07137
M204 P1000
; stop printing object Gear 06-05-23.STL id:0 copy 0
; printing object Top Connector 06-05-23.STL id:1 copy 0
G1 E-2.24 F4200
;WIPE_START
G1 F7200
G1 X119.938 Y115.055 E-.912
;WIPE_END
G1 E-.048 F4200
G1 Z.4 F720
G1 X122.506 Y96.577 F9000
G1 Z.2 F720
G1 E3.2 F2400
M204 P600
;TYPE:Support material
;WIDTH:0.42
G1 F1200
G1 X109.698 Y96.577 E7.68668
G1 X109.698 Y92.368 E2.52591
G1 X109.739 Y92.37 E.02506
G1 X111.91 Y90.456 E1.7367
G1 X116.174 Y95.291 E3.8693
